usr/share/icons/biglinux-icons-material/16/actions/object-flip-ver.svg

<svg width="16" height="16" version="1.1" viewBox="0 0 16 16" xmlns="http://www.w3.org/2000/svg">
 <path d="m8.0234 1-1.0059 1h-0.017578c-1.46e-5 0.0058441 1.47e-5 0.011734 0 0.017578l-3 2.9824h2.9941c-0.0048406 1.9994-0.0088423 4.0007-0.0019531 6h-2.9922l3.0098 2.9922c2.41e-5 0.0026-2.41e-5 0.005211 0 0.007812h0.0078125l1.0059 1 3.9766-4h-3.0371c-0.013051-1.9984 0.0043729-4.001 0.019531-6h3.0176l-3.9766-4z" fill="#dedede"/>
</svg>

<svg xmlns="http://www.w3.org/2000/svg" width="16" height="16"><path fill="#dedede" d="M8.023 1 7.018 2H7v.018L4 5h2.994c-.005 2-.009 4-.002 6H4l3.01 2.992V14h.007l1.006 1L12 11H8.963c-.013-1.998.004-4.001.02-6H12L8.023 1z"/></svg>
